quadrat/assets/arrow.svg

<svg fill="none" height="10" viewBox="0 0 23 10" width="23" xmlns="http://www.w3.org/2000/svg"><path d="m11.1829 9.09321.3177.26154.3178-.26154 10.3871-8.549461c.068-.05594.2026-.058234.2761-.006882l-10.8408 8.922853c-.0659.05418-.2117.05355-.2768-.00098l.0001-.00001-.0037-.00298-10.838139-8.920685c.07398-.04949.206255-.046595.273416.008683zm-10.683013-8.562418-.002727-.003313z" stroke="#ffd1d1"/></svg>

<svg width="23" height="10" viewBox="0 0 23 10" fill="none" xmlns="http://www.w3.org/2000/svg">
<path d="M11.1829 9.09321L11.5006 9.35475L11.8184 9.09321L22.2055 0.543749C22.2735 0.487809 22.4081 0.485515 22.4816 0.536867L11.6408 9.45972C11.5749 9.5139 11.4291 9.51327 11.364 9.45874L11.3641 9.45873L11.3604 9.45575L0.522261 0.535065C0.596241 0.485575 0.728516 0.48847 0.795677 0.543748L11.1829 9.09321ZM0.499887 0.530792L0.49716 0.527479L0.499887 0.530792Z" stroke="#FFD1D1"/>
</svg>
